src/topics/icons/w3c.svg

<svg height="137" preserveAspectRatio="xMidYMid" viewBox="0 0 256 137" width="256" xmlns="http://www.w3.org/2000/svg"><path d="m67.6542745 1.6102902 24.2186039 82.3536941 24.2286436-82.3536941h17.530478l-40.0926118 135.3005178h-1.6685176l-25.0578824-83.8455217-25.0558745 83.8455217h-1.6705255l-40.0865882-135.3005178h17.5405176l24.2165961 82.3536941 16.371953-55.4526118-8.0173177-26.89907446h17.5425255z" fill="#005a9c"/><path d="m183.42651 93.4791529c0 12.2558741-3.260737 22.5561101-9.762134 30.9087371-6.521474 8.348612-14.958431 12.522918-25.312878 12.522918-7.794447 0-14.582965-2.48571-20.375592-7.433035-5.792628-4.959373-10.079373-11.669585-12.862243-20.122604l13.69349-5.680189c2.009851 5.124016 4.652172 9.159781 7.937004 12.103279 3.284831 2.949521 7.147921 4.43131 11.607341 4.43131 4.676267 0 8.633726-2.622244 11.864345-7.852675 3.23062-5.232439 4.84091-11.521004 4.84091-18.8757332 0-8.1297569-1.728753-14.4143059-5.184251-18.8717177-4.005647-5.2284235-10.298227-7.8546823-18.867702-7.8546823h-6.680094v-8.013302l23.383341-40.4239059h-28.23429l-7.852675 13.3621961h-5.005553v-30.0694588h65.13644v8.18196078l-24.716549 42.60040782c8.681913 2.7808628 15.251576 7.8526745 19.70698 15.2013804 4.457412 7.3466981 6.68411 15.9683765 6.68411 25.8851137z" fill="#005a9c"/><g fill="#221b0a"><path d="m251.404047.85333333 2.83909 17.26745097-10.055278 19.2411608s-3.86309-8.1598745-10.274134-12.6775216c-5.407121-3.8128941-8.928878-4.6361098-14.42836-3.5056941-7.081663 1.4657255-15.090949 9.9147294-18.588612 20.339451-4.184345 12.4687059-4.224502 18.508298-4.373082 24.0499451-.230902 8.8907294 1.164549 14.1412392 1.164549 14.1412392s-6.103844-11.2961255-6.045616-27.8407529c.036141-11.8101334 1.901427-22.5239843 7.360753-33.0872471 4.810792-9.29029019 11.946667-14.86607058 18.289443-15.51661176 6.5536-.68869019 11.741867 2.46763922 15.743498 5.89904314 4.194384 3.59002352 8.459043 11.44069022 8.459043 11.44069022z"/><path d="m252.632847 98.5830902s-4.433318 7.9450348-7.206149 11.0029808c-2.768816 3.059953-7.728188 8.451011-13.846086 11.153568-6.121914 2.696534-9.328439 3.208534-15.382087 2.622243-6.043607-.582274-11.659545-4.079937-13.625223-5.549678-1.965678-1.449663-6.999341-5.750463-9.832408-9.746071-2.851137-4.015686-7.296502-12.0370193-7.296502-12.0370193s2.475671 8.0333803 4.029741 11.4426983c.887467 1.961663 3.634196 7.961098 7.527404 13.195545 3.624157 4.869019 10.671687 13.259796 21.387545 15.149176 10.713851 1.897412 18.074604-2.909364 19.891702-4.077929 1.821114-1.160533 5.66011-4.373082 8.095624-6.977255 2.537914-2.712596 4.937286-6.182149 6.256439-8.24822.97782-1.521945 2.562008-4.589929 2.562008-4.589929z"/></g></svg>

<?xml version="1.0" encoding="UTF-8" standalone="no" ?>
<svg width="256px" height="137px" viewBox="0 0 256 137" version="1.1" xmlns="http://www.w3.org/2000/svg" xmlns:xlink="http://www.w3.org/1999/xlink" preserveAspectRatio="xMidYMid">
    <g>
        <path d="M67.6542745,1.6102902 L91.8728784,83.9639843 L116.101522,1.6102902 L133.632,1.6102902 L93.5393882,136.910808 L91.8708706,136.910808 L66.8129882,53.0652863 L41.7571137,136.910808 L40.0865882,136.910808 L0,1.6102902 L17.5405176,1.6102902 L41.7571137,83.9639843 L58.1290667,28.5113725 L50.111749,1.61229804 L67.6542745,1.61229804 L67.6542745,1.6102902 Z" fill="#005A9C"></path>
        <path d="M183.42651,93.4791529 C183.42651,105.735027 180.165773,116.035263 173.664376,124.38789 C167.142902,132.736502 158.705945,136.910808 148.351498,136.910808 C140.557051,136.910808 133.768533,134.425098 127.975906,129.477773 C122.183278,124.5184 117.896533,117.808188 115.113663,109.355169 L128.807153,103.67498 C130.817004,108.798996 133.459325,112.834761 136.744157,115.778259 C140.028988,118.72778 143.892078,120.209569 148.351498,120.209569 C153.027765,120.209569 156.985224,117.587325 160.215843,112.356894 C163.446463,107.124455 165.056753,100.83589 165.056753,93.4811608 C165.056753,85.3514039 163.328,79.0668549 159.872502,74.6094431 C155.866855,69.3810196 149.574275,66.7547608 141.0048,66.7547608 L134.324706,66.7547608 L134.324706,58.7414588 L157.708047,18.3175529 L129.473757,18.3175529 L121.621082,31.679749 L116.615529,31.679749 L116.615529,1.6102902 L181.751969,1.6102902 L181.751969,9.79225098 L157.03542,52.3926588 C165.717333,55.1735216 172.286996,60.2453333 176.7424,67.5940392 C181.199812,74.9407373 183.42651,83.5624157 183.42651,93.4791529 L183.42651,93.4791529 Z" fill="#005A9C"></path>
        <path d="M251.404047,0.853333333 L254.243137,18.1207843 L244.187859,37.3619451 C244.187859,37.3619451 240.324769,29.2020706 233.913725,24.6844235 C228.506604,20.8715294 224.984847,20.0483137 219.485365,21.1787294 C212.403702,22.6444549 204.394416,31.0934588 200.896753,41.5181804 C196.712408,53.9868863 196.672251,60.0264784 196.523671,65.5681255 C196.292769,74.4588549 197.68822,79.7093647 197.68822,79.7093647 C197.68822,79.7093647 191.584376,68.4132392 191.642604,51.8686118 C191.678745,40.0584784 193.544031,29.3446275 199.003357,18.7813647 C203.814149,9.49107451 210.950024,3.91529412 217.2928,3.26475294 C223.8464,2.57606275 229.034667,5.73239216 233.036298,9.16379608 C237.230682,12.7538196 241.495341,20.6044863 241.495341,20.6044863 L251.404047,0.853333333 L251.404047,0.853333333 Z" fill="#221B0A"></path>
        <path d="M252.632847,98.5830902 C252.632847,98.5830902 248.199529,106.528125 245.426698,109.586071 C242.657882,112.646024 237.69851,118.037082 231.580612,120.739639 C225.458698,123.436173 222.252173,123.948173 216.198525,123.361882 C210.154918,122.779608 204.53898,119.281945 202.573302,117.812204 C200.607624,116.362541 195.573961,112.061741 192.740894,108.066133 C189.889757,104.050447 185.444392,96.0291137 185.444392,96.0291137 C185.444392,96.0291137 187.920063,104.062494 189.474133,107.471812 C190.3616,109.433475 193.108329,115.43291 197.001537,120.667357 C200.625694,125.536376 207.673224,133.927153 218.389082,135.816533 C229.102933,137.713945 236.463686,132.907169 238.280784,131.738604 C240.101898,130.578071 243.940894,127.365522 246.376408,124.761349 C248.914322,122.048753 251.313694,118.5792 252.632847,116.513129 C253.610667,114.991184 255.194855,111.9232 255.194855,111.9232 L252.632847,98.5830902 L252.632847,98.5830902 Z" fill="#221B0A"></path>
    </g>
</svg>
